!!!Xfilter:transpose -t P8
!!!OTL: 1424. Jm Quartier.
!!!ODT: 1880
!!!ARE: Europa, Mitteleuropa, Deutschland, Hessen, Lahn - Kreis
!!!SCT: E1424
!!!TXL: @@DE
!!!YEM: Copyright 1995, estate of Helmut Schaffrath.
**kern	**text
*ICvox	*
*M3/4	*
*k[f#c#]	*
*D:	*
=1	=1
!LO:TX:a:t=Marschmäßig.	!
!LO:TX:a:t=Aus dem Lahnkreis. 1880.	!
{4d	Mor-
4f#	-gen
4a	mar-
=2	=2
(4a	-ſchie-
8dd)	.
8a	-ren
4a}	wir
=3	=3
{8b	ʒu
8b	den
8b	rei-
8b	-chen
8dd	Bau-
8b	-ern
=4	=4
4a	ins
8aL	Quar-
8gJ	.
4f#}	-tier.
=5	=5
{8a	Wenn
8a	ich
8a	werd
8a	ab-
8a	-ſchei-
8a	-den,
=6	=6
8b	wird
8b	das
8b	Mäd-
8b	-chen
8b	wei-
8b}	-nen,
=7	=7
{8cc#	wenn
8cc#	ich
8cc#	werd
8cc#	ab-
8cc#	-ſchei-
8cc#	-den,
=8	=8
8dd	wird
8dd	das
8ff#	Mäd-
8dd	-chen
8a	wei-
8a}	-nen,
=9	=9
{8b/	u.
8b/	wird
4a	trau-
4g	-rig
=10	=10
(4f#	ſein,
4a	-
4dd/)}	-
=11	=11
{8ff#	u.
8ff#	wird
4gg	trau-
4cc#	-rig
=12	=12
2dd	ſein.
4r}	.
=13	=13
{8a	Wenn
8a	ich
8a	werd
8a	ab-
8a	-ſchei-
8a	-den,
=14	=14
8b	wird
8b	das
8b	Mäd-
8b	-chen
8b	wei-
8b}	-nen,
=15	=15
{8cc#	wenn
8cc#	ich
8cc#	werd
8cc#	ab-
8cc#	-ſchei-
8cc#	-den,
=16	=16
8dd	wird
8dd	das
8ff#	Mäd-
8dd	-chen
8a	wei-
8a}	-nen,
=17	=17
{8b/	u.
8b/	wird
4a	trau-
4g	-rig
=18	=18
(4f#	ſein,
4a	-
4dd/)}	-
=19	=19
{8ff#	u.
8ff#	wird
4gg	trau-
4cc#	-rig
=20	=20
2dd	ſein.
4r}	.
==	==
!!!AGN: Staende -, Soldaten - Lied, Liebe
!!!ONB: ESAC (Essen Associative Code) Database: ERK3
!!!AMT: simple triple
!!!AIN: vox
!!!EED: Helmut Schaffrath
!!!EEV: 1.0
!!!GTL: Staendelieder (Berufslieder). 1. Soldaten- und Kriegslieder. Soldatenlieder seit dem 30jaehr. Kriege.
!!!URL-scan: https://rosdok.uni-rostock.de/mcrviewer/recordIdentifier/rosdok_ppn745177999/iview2/phys_0288.iview2?x=-128.77276441889308&y=1340.1485182298347&scale=0.5870222003877485&rotation=0&layout=singlePageLayout
!!!ENC: Anna Maria Matuszewska
!!!EEV: 2024/12/31
*-	*-
